www/assets/images/test_icons/flags/KE.svg

<svg width="21" height="15" viewBox="0 0 21 15" fill="none" xmlns="http://www.w3.org/2000/svg">
<mask id="mask0_3_123" style="mask-type:alpha" maskUnits="userSpaceOnUse" x="0" y="0" width="21" height="15">
<path d="M19 0H2C0.89543 0 0 0.89543 0 2V13C0 14.1046 0.89543 15 2 15H19C20.1046 15 21 14.1046 21 13V2C21 0.89543 20.1046 0 19 0Z" fill="white"/>
</mask>
<g mask="url(#mask0_3_123)">
<path d="M19 0H2C0.89543 0 0 0.89543 0 2V13C0 14.1046 0.89543 15 2 15H19C20.1046 15 21 14.1046 21 13V2C21 0.89543 20.1046 0 19 0Z" fill="black"/>
<path fill-rule="evenodd" clip-rule="evenodd" d="M0 10H21V11H0V10Z" fill="white"/>
<path fill-rule="evenodd" clip-rule="evenodd" d="M0 11H21V15H0V11Z" fill="#006700"/>
<path fill-rule="evenodd" clip-rule="evenodd" d="M0 5H21V10H0V5Z" fill="#BD0000"/>
<path fill-rule="evenodd" clip-rule="evenodd" d="M0 4H21V5H0V4Z" fill="white"/>
<path fill-rule="evenodd" clip-rule="evenodd" d="M12.414 5.914C12.486 5.914 12.914 5.244 12.914 4.414C12.914 3.586 12.486 2.914 12.414 2.914C12.344 2.914 11.914 3.586 11.914 4.414C11.914 5.244 12.344 5.914 12.414 5.914ZM9.47499 5.475C9.42499 5.525 8.64499 5.355 8.06099 4.768C7.47599 4.182 7.30399 3.404 7.35499 3.354C7.40499 3.304 8.18299 3.474 8.76899 4.061C9.35499 4.647 9.52599 5.425 9.47599 5.476L9.47499 5.475ZM11.354 10.008C11.404 9.961 12.184 10.121 12.769 10.668C13.354 11.218 13.526 11.945 13.476 11.992C13.426 12.039 12.646 11.879 12.06 11.332C11.475 10.782 11.303 10.055 11.354 10.008ZM9.47499 10.008C9.42499 9.961 8.64499 10.121 8.06099 10.668C7.47599 11.218 7.30399 11.945 7.35499 11.992C7.40499 12.039 8.18299 11.879 8.76899 11.332C9.35499 10.782 9.52599 10.055 9.47599 10.008H9.47499Z" fill="white"/>
<path fill-rule="evenodd" clip-rule="evenodd" d="M10.5 12C10.857 12 13 9.985 13 7.5C13 5.015 10.857 3 10.5 3C10.143 3 8 5.015 8 7.5C8 9.985 10.143 12 10.5 12Z" fill="#BD0000"/>
<path fill-rule="evenodd" clip-rule="evenodd" d="M8.5 9C8.57 9 9 8.328 9 7.5C9 6.672 8.57 6 8.5 6C8.43 6 8 6.672 8 7.5C8 8.328 8.43 9 8.5 9ZM12.5 9C12.57 9 13 8.328 13 7.5C13 6.672 12.57 6 12.5 6C12.43 6 12 6.672 12 7.5C12 8.328 12.43 9 12.5 9Z" fill="black"/>
<path d="M11 7.5C11 6.67157 10.7761 6 10.5 6C10.2239 6 10 6.67157 10 7.5C10 8.32843 10.2239 9 10.5 9C10.7761 9 11 8.32843 11 7.5Z" fill="white"/>
<path d="M19 0.5H2C1.17157 0.5 0.5 1.17157 0.5 2V13C0.5 13.8284 1.17157 14.5 2 14.5H19C19.8284 14.5 20.5 13.8284 20.5 13V2C20.5 1.17157 19.8284 0.5 19 0.5Z" stroke="black" stroke-opacity="0.1"/>
</g>
</svg>

<svg fill="none" height="15" viewBox="0 0 21 15" width="21" xmlns="http://www.w3.org/2000/svg" xmlns:xlink="http://www.w3.org/1999/xlink"><mask id="a" height="15" maskUnits="userSpaceOnUse" width="21" x="0" y="0"><path d="m19 0h-17c-1.10457 0-2 .89543-2 2v11c0 1.1046.89543 2 2 2h17c1.1046 0 2-.8954 2-2v-11c0-1.10457-.8954-2-2-2z" fill="#fff"/></mask><g mask="url(#a)"><path d="m19 0h-17c-1.10457 0-2 .89543-2 2v11c0 1.1046.89543 2 2 2h17c1.1046 0 2-.8954 2-2v-11c0-1.10457-.8954-2-2-2z" fill="#000"/><g clip-rule="evenodd" fill-rule="evenodd"><path d="m0 10h21v1h-21z" fill="#fff"/><path d="m0 11h21v4h-21z" fill="#006700"/><path d="m0 5h21v5h-21z" fill="#bd0000"/><path d="m0 4h21v1h-21z" fill="#fff"/><path d="m12.414 5.914c.072 0 .5-.67.5-1.5 0-.828-.428-1.5-.5-1.5-.07 0-.5.672-.5 1.5 0 .83.43 1.5.5 1.5zm-2.93901-.439c-.05.05-.83-.12-1.414-.707-.585-.586-.757-1.364-.706-1.414.05-.05.828.12 1.414.707.586.586.757 1.364.707 1.415zm1.87901 4.533c.05-.047.83.113 1.415.66.585.55.757 1.277.707 1.324s-.83-.113-1.416-.66c-.585-.55-.757-1.277-.706-1.324zm-1.87901 0c-.05-.047-.83.113-1.414.66-.585.55-.757 1.277-.706 1.324.05.047.828-.113 1.414-.66.586-.55.757-1.277.707-1.324z" fill="#fff"/><path d="m10.5 12c.357 0 2.5-2.015 2.5-4.5s-2.143-4.5-2.5-4.5-2.5 2.015-2.5 4.5 2.143 4.5 2.5 4.5z" fill="#bd0000"/><path d="m8.5 9c.07 0 .5-.672.5-1.5s-.43-1.5-.5-1.5-.5.672-.5 1.5.43 1.5.5 1.5zm4 0c.07 0 .5-.672.5-1.5s-.43-1.5-.5-1.5-.5.672-.5 1.5.43 1.5.5 1.5z" fill="#000"/></g><path d="m11 7.5c0-.82843-.2239-1.5-.5-1.5s-.5.67157-.5 1.5.2239 1.5.5 1.5.5-.67157.5-1.5z" fill="#fff"/><path d="m19 .5h-17c-.82843 0-1.5.67157-1.5 1.5v11c0 .8284.67157 1.5 1.5 1.5h17c.8284 0 1.5-.6716 1.5-1.5v-11c0-.82843-.6716-1.5-1.5-1.5z" stroke="#000" stroke-opacity=".1"/></g></svg>
